!!!COM: Beethoven
!!!OTL: 7 Variations on a Quartet by Winter 
!!!Variation: Variation 5f
**function	**harm	**kern	**kern
*M2/4	*M2/4	*staff2	*staff1
*F:	*F:	*clefG2	*clefG2
*tb16	*	*k[b-]	*k[b-]
*	*	*M2/4	*M2/4
*	*	*F:	*F:
4T	4V	4r	8ccL
.	.	.	8ccJ
=	=	=291	=291
2T	2V7	4r	(8ccL
.	.	.	16eeJk)
.	.	.	16r
.	.	(8B-L	4r
.	.	16CJk)	.
.	.	16r	.
=	=	=292	=292
2T	2I64	4r	(8ccL
.	.	.	16ffJk)
.	.	.	16r
.	.	(8AL	4r
.	.	16CJk)	.
.	.	16r	.
=	=	=293	=293
2T	2V7	4r	(8ccL
.	.	.	16bb-Jk)
.	.	.	16r
.	.	(8EL	4r
.	.	16CJk)	.
.	.	16r	.
=	=	=294	=294
2T	2I64	4r	(8ccL
.	.	.	16aaJk)
.	.	.	16r
.	.	(8FL	4r
.	.	16CJk)	.
.	.	16r	.
=	=	=295	=295
4T	4V7	8r	(16ccLL
.	.	.	16eeJJ)
.	.	(16B-LL	8r
.	.	16CJJ)	.
4.T	4viio7/vi.	8r	(16dd#LL
.	.	.	16eeJJ)
.	.	(16B-LL	8r
.	.	16C#JJ)	.
.	.	=296	=296
.	.	8r	(16eeLL
=	=	.	16ffJJ)
4P	4vi	(16ALL	8r
.	.	16DJJ)	.
.	.	8r	(16ffLL 16gg
.	.	.	16fffJJ)
4P	4V43/V	(16BLL	8r
.	.	16DJJ)	.
.	.	=297	=297
.	.	8r	(16ffLL 16aa
=	=	.	16fffJJ)
4D	4C64	(16cLL	8r
.	.	16CJJ)	.
.	.	8r	(16ggLL 16bb-
.	.	.	16eeeJJ)
4D	4V7	(16ccLL	8r
.	.	16cJJ)	.
.	.	=298	=298
.	.	8r	(16ffLL 16aa
=	=	.	16fffJJ)
4T	4I	(16fLL	8r
.	.	16FJJ)	.
.	.	8r	(16b-LL
.	.	.	16eeJJ)
4T	4V7	(16cLL	8r
.	.	16CJJ)	.
.	.	=299	=299
.	.	8r	(16aLL
=	=	.	16ffJJ)
2T	2I	(16FLL	8r
.	.	16FFJJ)	.
.	.	4r	4r
.	.	==300||	==300||
*-	*- 	*-	*-
